app/images/dest/icons/services-worm.svg

<svg width="17" height="246" viewBox="0 0 17 246" fill="none" xmlns="http://www.w3.org/2000/svg">
<path d="M0.757151 215.03C0.757151 206.46 4.40965 202.06 7.62715 198.18C10.7846 194.38 13.5071 191.1 13.5071 184.3C13.5071 177.5 10.7771 174.23 7.62715 170.42C4.40215 166.54 0.75715 162.14 0.75715 153.58C0.75715 145.02 4.40965 140.61 7.62715 136.74C10.7846 132.94 13.5071 129.66 13.5071 122.86C13.5071 116.06 10.7771 112.79 7.62715 108.98C4.40215 105.1 0.75715 100.7 0.75715 92.14C0.757149 83.58 4.40965 79.18 7.62715 75.3C10.7846 71.5 13.5071 68.22 13.5071 61.42C13.5071 54.62 10.7771 51.35 7.62715 47.55C4.40215 43.67 0.757149 39.28 0.757149 30.71C0.757149 22.14 4.40965 17.75 7.62715 13.87C10.7846 10.07 13.5146 6.79 13.5146 4.76995e-08L16.5146 0C16.5146 8.57 12.8621 12.96 9.64465 16.84C6.48715 20.64 3.76465 23.92 3.76465 30.71C3.76465 37.5 6.49465 40.78 9.64465 44.58C12.8621 48.47 16.5146 52.86 16.5146 61.43C16.5146 70 12.8621 74.39 9.64465 78.27C6.48715 82.07 3.76465 85.35 3.76465 92.14C3.76465 98.93 6.49465 102.21 9.64465 106.02C12.8696 109.9 16.5146 114.3 16.5146 122.86C16.5146 131.42 12.8621 135.83 9.64465 139.7C6.48715 143.5 3.76465 146.78 3.76465 153.58C3.76465 160.38 6.49465 163.65 9.64465 167.46C12.8697 171.34 16.5147 175.74 16.5147 184.3C16.5147 192.86 12.8622 197.27 9.64465 201.15C6.48715 204.95 3.76465 208.23 3.76465 215.03C3.76465 221.83 6.49465 225.11 9.64465 228.91C12.8622 232.79 16.5147 237.19 16.5147 245.76L13.5147 245.76C13.5147 238.97 10.7847 235.68 7.63465 231.88C4.40965 228 0.76465 223.6 0.76465 215.03L0.757151 215.03Z" fill="#3F3F3F"/>
</svg>

<svg xmlns="http://www.w3.org/2000/svg" width="17" height="246" fill="none"><path fill="#3F3F3F" d="M.757 215.03c0-8.57 3.653-12.97 6.87-16.85 3.158-3.8 5.88-7.08 5.88-13.88 0-6.8-2.73-10.07-5.88-13.88-3.225-3.88-6.87-8.28-6.87-16.84s3.653-12.97 6.87-16.84c3.158-3.8 5.88-7.08 5.88-13.88 0-6.8-2.73-10.07-5.88-13.88-3.225-3.88-6.87-8.28-6.87-16.84S4.41 79.18 7.627 75.3c3.158-3.8 5.88-7.08 5.88-13.88 0-6.8-2.73-10.07-5.88-13.87-3.225-3.88-6.87-8.27-6.87-16.84s3.653-12.96 6.87-16.84c3.158-3.8 5.888-7.08 5.888-13.87h3c0 8.57-3.653 12.96-6.87 16.84-3.158 3.8-5.88 7.08-5.88 13.87 0 6.79 2.73 10.07 5.88 13.87 3.217 3.89 6.87 8.28 6.87 16.85 0 8.57-3.653 12.96-6.87 16.84-3.158 3.8-5.88 7.08-5.88 13.87 0 6.79 2.73 10.07 5.88 13.88 3.225 3.88 6.87 8.28 6.87 16.84s-3.653 12.97-6.87 16.84c-3.158 3.8-5.88 7.08-5.88 13.88 0 6.8 2.73 10.07 5.88 13.88 3.225 3.88 6.87 8.28 6.87 16.84s-3.653 12.97-6.87 16.85c-3.158 3.8-5.88 7.08-5.88 13.88 0 6.8 2.73 10.08 5.88 13.88 3.217 3.88 6.87 8.28 6.87 16.85h-3c0-6.79-2.73-10.08-5.88-13.88C4.41 228 .765 223.6.765 215.03H.757Z"/></svg>
